!!!!SEGMENT: pl-kk--kk-i-389--009-001_anonim--missa-no-9-rorate.krn
!!!cenid: 17xx:2514
!!!COM: Anonim
!!!COM-rismID: pe30004985
!!!CDT:
!!!CNT:
!!!OPR: [Missa] No. 9.
!!!OTL: Rorate
!!!OMV: 001
!!!PDT:
!!!AGN: Sacred; Mass
!!!YEC: Copyright 2022 Narodowy Instytut Fryderyka Chopina (https://polishscores.org)
!!!YEM: License CC-BY-4.0 (https://creativecommons.org/licenses/by/4.0)
!!!SMS-siglum: PL-Kk
!!!SMS-shelfmark: Kk.I.389
!!!SMS-variant:
!!!SMS-altvar:
!!!SMS-shelfwork: 009-001 M
!!!NIFC-rismSourceID: 1001146182
!!!NIFC-rismChildID: 1001147253
!!!NIFC-islandoraID: pl-kk:6976
!!!URL-pdf-islandora: https://repozytorium.nifc.pl/islandora/object/pl-kk%3A6976/datastream/PDF/view
!!!URL-scan: https://polish.musicsources.pl/pl/lokalizacje/galeria/rekopisy/5999/1 @EN{Scan on Polish Music Sources Website} @PL{Skany w portalu Dziedzictwo Muzyki Polskiej w otwartym dostępie}
!!!IIIF:
!!!ONB-nifc: UWAGA: S – skan 15-16, A – 34-35, T – 53-54, B – 72-73. Części Mszy: Rorate, Kyrie, Gloria, Graduale, Sanctus, Benedictus, Agnus, Dona.
!!!AIN: 1 alto 1 bass 1 soprn 1 tenor
!!!key: F
**kern	**text	**kern	**text	**kern	**text	**kern	**text
*part4	*part4	*part3	*part3	*part2	*part2	*part1	*part1
*staff4	*staff4	*staff3	*staff3	*staff2	*staff2	*staff1	*staff1
*I"Basso.	*	*I"Tenore.	*	*I"Alto.	*	*I"Soprano.	*
*I'B	*	*I'T	*	*I'A	*	*I'S	*
*ICvox	*	*ICvox	*	*ICvox	*	*ICvox	*
*Ibass	*	*Itenor	*	*Ialto	*	*Isoprn	*
*clefF4	*	*clefC4	*	*clefC3	*	*clefC1	*
*k[b-]	*	*k[b-]	*	*k[b-]	*	*k[b-]	*
*F:	*	*F:	*	*F:	*	*F:	*
*M2/2	*	*M2/2	*	*M2/2	*	*M2/2	*
*met(C.)	*	*met(C.)	*	*met(C.)	*	*met(C.)	*
=1	=1	=1	=1	=1	=1	=1	=1
*	*	*	*	*	*	*all\right:global	*
4r	.	4r	.	4r	.	4r	.
*	*	*	*	*2\right	*	*	*
4F\	Ro-	4A/	Ro-	2f\	Ro-	4cc\	Ro-
*2\right	*	*	*	*	*	*2\right	*
2F\	-ra-	2A/	-ra-	.	.	2cc\	-ra-
.	.	.	.	4g\	.	.	.
=2	=2	=2	=2	=2	=2	=2	=2
1F	.	2.A/	.	4a\	-ra-	4cc\	.
.	.	.	.	4b-\	.	4dd\	.
.	.	.	.	4a\	.	4cc\	.
.	.	4B-/	.	4g\	.	4b-\	.
=3	=3	=3	=3	=3	=3	=3	=3
1F	.	4c\	.	1f	.	4a\	.
.	.	4d\	.	.	.	4b-\	.
.	.	4c\	.	.	.	4a\	.
.	.	4B-\	.	.	.	4g\	.
=4	=4	=4	=4	=4	=4	=4	=4
4F\	-te	4A\	-te	4f\	-te,	4f/	-te
4F\	Ro-	4c\	ro-	4f\	Ro-	4f/	Ro-
4F\	-ra-	4A\	-ra-	4f\	-ra-	4cc\	-ra-
4F\	-te	4F/	-te	4f\	-te	4cc\	-te
=5	=5	=5	=5	=5	=5	=5	=5
*	*	*2\right	*	*	*	*	*
!	!	!LO:LB:g=original	!	!	!	!	!
2G\	ce-	2B-\	ce-	4e\	ce-	2b-X\	ce-
.	.	.	.	4e\	-li	.	.
2A\	-li	2A\	-li	[2f\	de-	2cc\	-li
!	!	!	!	!LO:LB:g=original	!	!	!
=6	=6	=6	=6	=6	=6	=6	=6
2B-\	de-	2.G/	de-	2f\]	.	2dd\	de-
4c\	.	.	.	2e\	-su-	2cc\	-su-
4C/	-su-	4G/	-su-	.	.	.	.
!LO:LB:g=original	!	!	!	!	!	!LO:LB:g=original	!
=7	=7	=7	=7	=7	=7	=7	=7
4F\	-per,	2A\	-per,	4f\	-per,	4cc\	-per,
4r	.	.	.	4a\	et	4ff\	et
2r	.	2r	.	4a\	nu-	4ff\	nu-
.	.	.	.	4a\	-bes	4ff\	-bes
=8	=8	=8	=8	=8	=8	=8	=8
!	!	!LO:TX:a:t=1.	!	!	!	!	!
4r	.	1r	.	2g\	plu-	2ff\	plu-
4c\	et	.	.	.	.	.	.
4c\	nu-	.	.	2g\	-ant,	2ee\	-ant
4c\	-bes	.	.	.	.	.	.
=9	=9	=9	=9	=9	=9	=9	=9
2A\	plu-	4r	.	(4a\	nu-	4ff\	nu-
.	.	4c\	et	4b-\)	.	4gg\	.
2A\	-ant	4c\	nu-	(4a\	-bes	4ff\	-bes
.	.	4c\	-bes	4g\)	.	4ee\	.
=10	=10	=10	=10	=10	=10	=10	=10
4B-\	nu-	4d\	plu-	2f\	plu-	2dd\	plu-
4c\	.	4e\	.	.	.	.	.
4B-\	-bes	4d\	-ant	2f\	-ant	2dd\	-ant
4A\	.	4c\	.	.	.	.	.
=11	=11	=11	=11	=11	=11	=11	=11
2G\	plu-	2B-X\	ju-	4g\	nu-	4ee\	nu-
.	.	.	.	4a\	.	4ff\	.
2G\	-ant	2B-\	-stum	4g\	-bes	4ee\	-bes
.	.	.	.	4f\	.	4dd\	.
=12	=12	=12	=12	=12	=12	=12	=12
4A\	nu-	4c\	nu-	2e\	plu-	2cc\	plu-
4B-\	.	4d\	.	.	.	.	.
4A\	-bes	4c\	-bes	2e\	-ant	2cc\	-ant
4G\	.	4B-\	.	.	.	.	.
!	!	!LO:LB:g=original	!	!	!	!	!
=13	=13	=13	=13	=13	=13	=13	=13
2F\	nu-	2A/	plu-	2f\	nu-	2a\	nu-
2E\	-bes	2G/	-ant	2g\	-bes	2cc#X\	-bes
!LO:LB:g=original	!	!	!	!LO:LB:g=original	!	!	!
=14	=14	=14	=14	=14	=14	=14	=14
2D\	plu-	2A\	plu-	2f\	plu-	4dd\	plu-
.	.	.	.	.	.	4dd\	-ant
!	!	!	!	!	!	!LO:LB:g=original	!
2G\	-ant	2B-\	-ant	2e\	-ant	[2dd\	ju-
=15	=15	=15	=15	=15	=15	=15	=15
2A\	ju-	1A	ju-	1e	ju-	2dd\]	.
!	!	!	!	!	!	!LO:TX:t=P:problem:tekst trochę przesunięty	!
2AA/	.	.	.	.	.	2cc#X\	-stum,
=16	=16	=16	=16	=16	=16	=16	=16
2D\	-stum,	2A\	-stum,	2f#X\	-stum	2dd\	a-
2r	.	2d\	a-	2a\	a-	2ff\	-pe-
=17	=17	=17	=17	=17	=17	=17	=17
!LO:TX:a:t=2	!	!	!	!	!	!	!
0r	.	2f\	-pe-	2f\	-pe-	2dd\	-ri-
.	.	2d\	-ri-	2a\	-ri-	2ff\	-a-
=18-	=18	=18	=18	=18	=18	=18	=18
.	.	2c#X\	-a-	2a\	-a-	2ee\	-tur
.	.	2d\	.	2a\	-tur,	2dd\	ter-
=19	=19	=19	=19	=19	=19	=19	=19
2r	.	2A\	-tur	2a\	a-	2cc#X\	-ra
2F\	a-	2cn\	a-	2f\	.	2a\	a-
=20	=20	=20	=20	=20	=20	=20	=20
4A\	-pe-	4c\	-pe-	4f\	pe-	4a\	-pe-
4A\	-ri-	4c\	-ri-	4a\	-ri-	4ccn\	-ri-
4B-\	-a-	4d\	-a-	4g\	-a-	4b-X\	-a-
4B-\	-tur	4d\	-tur	4f\	-tur	4a\	-tur
=21	=21	=21	=21	=21	=21	=21	=21
2c\	ter-	1c	ter-	2f\	ter-	1g	ter-
2C/	.	.	.	2e\	.	.	.
!	!	!LO:LB:g=original	!	!	!	!	!
=22	=22	=22	=22	=22	=22	=22	=22
2F\	-ra,	2c\	-ra,	2f\	-ra.	2a\	-ra,
2r	.	2r	.	2r	.	2cc\	et
!	!	!	!	!	!	!LO:LB:g=original	!
=23	=23	=23	=23	=23	=23	=23	=23
!	!	!LO:TX:a:t=3.	!	!LO:TX:a:t=1	!	!	!
00r	.	0r	.	1r	.	4f/	ger-
.	.	.	.	.	.	4g/	.
.	.	.	.	.	.	4a/	.
.	.	.	.	.	.	4f/	.
!	!	!	!	!LO:LB:g=original	!	!	!
=24-	=24	=24-	=24	=24	=24	=24	=24
.	.	.	.	2r	.	2cc\	.
.	.	.	.	2g\	et	4cc\	-mi-
.	.	.	.	.	.	4cc\	-net
=25-	=25	=25	=25	=25	=25	=25	=25
.	.	1r	.	4c\	ger-	[y1cc	ger-
.	.	.	.	4d\	.	.	.
.	.	.	.	4e\	.	.	.
.	.	.	.	4c\	.	.	.
=26-	=26	=26	=26	=26	=26	=26	=26
!	!	!	!	!	!	!LO:N:xstem:cue 	!
!	!	!	!	!	!	!LO:N:vis=4	!
.	.	2r	.	2f\	.	2cc\]	.
.	.	2c\	et	4a\	mi-	2cc\	-mi-
.	.	.	.	4a\	-net	.	.
=27-	=27	=27	=27	=27	=27	=27	=27
1r	.	4F/	ger-	4a\	ger-	2cc\	-net
.	.	4G/	.	4g\	.	.	.
.	.	4A/	.	4f\	.	2r	.
.	.	4F/	.	4a\	.	.	.
=28	=28	=28	=28	=28	=28	=28	=28
2r	.	2c\	.	2g\	.	2r	.
2G\	et	4c\	mi-	4g\	-mi-	2ee\	et
.	.	4c\	-net	4g\	-net,	.	.
!LO:LB:g=original	!	!	!	!	!	!	!
=29	=29	=29	=29	=29	=29	=29	=29
4C/	ger-	1c	ger-	4g\	ger-	4ee\	ger-
4D/	.	.	.	4f\	.	4dd\	.
4E/	.	.	.	4e\	.	4cc\	.
4C/	.	.	.	4g\	.	4ee\	.
=30	=30	=30	=30	=30	=30	=30	=30
4F\	.	4A\	.	4f\	.	4cc\	.
4F\	-mi-	4A\	-mi-	4f\	-mi-	4cc\	-mi-
4E\	-net,	4c\	-net	4g\	-net,	4cc\	-net,
4E\	et	4c\	et	4g\	et	4cc\	et
=31	=31	=31	=31	=31	=31	=31	=31
2D\	ger-	2A/	ger-	2.f\	ger-	2cc\	ger-
4G\	.	4G/	-mi-	.	.	2bn\	-mi-
4GG/	-mi-	4G/	-net	4f\	-mi-	.	.
!	!	!LO:LB:g=original	!	!LO:LB:g=original	!	!LO:LB:g=original	!
=32	=32	=32	=32	=32	=32	=32	=32
2C/	-net,	2G/	sal-	2e\	-net	2cc\	-net,
2r	.	2c\	.	2g\	et	2ee\	ger-
=33	=33	=33	=33	=33	=33	=33	=33
!LO:TX:a:t=2	!	!	!	!	!	!	!
0r	.	2f\	.	2f\	ger-	2a\	.
.	.	2e\	-va-	2g\	.	2cc\	.
=34-	=34	=34	=34	=34	=34	=34	=34
.	.	2f\	-to-	2.f\	.	2a\	.
.	.	2d\	.	.	.	2bn\	-mi-
.	.	.	.	4f\	-mi-	.	.
=35	=35	=35	=35	=35	=35	=35	=35
2r	.	2c\	-rem,	2g\	-net,	2cc\	-net,
2F\	et	2c\	et	2a\	et	2ff\	et
=36	=36	=36	=36	=36	=36	=36	=36
2B-\	ger-	2B-\	ger-	2f\	ger-	2dd\	ger-
2A\	.	2c\	.	2a\	.	2ff\	.
=37	=37	=37	=37	=37	=37	=37	=37
2B-\	.	2.B-\	.	2f\	.	2dd\	.
2G\	-mi-	.	.	2g\	-mi-	2ee\	-mi-
.	.	4B-\	-mi-	.	.	.	.
=38	=38	=38	=38	=38	=38	=38	=38
2F\	-net	2c\	-net	2a\	-net,	2ff\	-net,
4A\	Sal-	4A\	Sal-	4f\	Sal-	2ff\	Sal-
4F\	.	4A\	-va-	4f\	-va-	.	.
!LO:LB:g=original	!	!	!	!	!	!	!
=39	=39	=39	=39	=39	=39	=39	=39
2B-\	.	2B-\	-to-	[y1f	-to-	2dd\	.
2F\	-va-	2A\	.	.	.	2cc\	-va-
!	!	!LO:LB:g=original	!	!	!	!	!
=40	=40	=40	=40	=40	=40	=40	=40
!	!	!	!	!LO:N:xstem:cue	!	!	!
!	!	!	!	!LO:N:vis=4	!	!	!
2c\	-to-	1G	rem	2f\]	.	1cc	-to-
2C/	.	.	.	2e\	.	.	.
!	!	!	!	!	!	!LO:LB:g=original	!
=41	=41	=41	=41	=41	=41	=41	=41
2F\	-rem,	2A/	ger-	2f\	-rem,	2cc\	-rem
4BBn/	Sal-	4G/	-mi-	[2f\	Sal-	[2dd\	Sal-
4BB/	-va-	4G/	-net	.	.	.	.
!	!	!	!	!LO:LB:g=original	!	!	!
=42	=42	=42	=42	=42	=42	=42	=42
!	!	!LO:TX:a:t=2	!	!	!	!	!
1C	-to-	0G	Sal-	2f\]	.	2dd\]	.
.	.	.	.	2e\	va-	2cc\	-va-
=43	=43	=43	=43	=43	=43	=43	=43
1D	.	.	.	1f	-to-	1bn	-to-
=44	=44	=44	=44	=44	=44	=44	=44
!	!	!	!	!	!	!LO:TX:a:t=2	!
0C	.	2G/	.	2e\	.	0cc	.
.	.	2A/	-va-	[2f\	.	.	.
=45-	=45	=45	=45	=45	=45	=45y	=45
.	.	1G	-to-	2f\]	.	.	.
.	.	.	.	2e\	.	.	.
=46	=46	=46	=46	=46	=46	=46	=46
0F	-rem.	0A	-rem.	0f	-rem.	0cc;	-rem.
==	==	==	==	==	==	==	==
*-	*-	*-	*-	*-	*-	*-	*-
!!!system-decoration: [(s1,s2,s3,s4)]
!!!ENC: Filip Voros
!!!END: 2023-11-12
!!!ENC: Leszek Kubiak
!!!END: 2024-01-20
